X: 1057
T: Kate
P: Longways for as many as will
R: jig
B: "Caledonian Country Dances" printed by John Walsh for John Johnson, London
S: http://imslp.org/wiki/Caledonian_Country_Dances_with_a_Thorough_Bass_(Various)
Z: 2013 John Chambers <jc:trillian.mit.edu>
N: Repeats added to satisfy the "Each Strain twice" instruction.
N: 6-bar phrases.
M: 6/8
L:1/8
K: D
% - - - - - - - - - - - - - - - - - - - - - - - - -
V: 1
B/c/ | d2A FDD | FDD B/c/d/c/B/A/ | GEE eEE | d2A FDD | FDD E2e | e>fd c2 :|
|: A | d2e f/g/a/g/f/e/ | d2A d2g | f/g/a/g/f/a/ gec | d2g f/g/a/g/f/e/ | d2c B2e | e>fd c2 :|
% - - - - - - - - - - - - - - - - - - - - - - - - -
V: 2 clef=bass middle=d
   z | d3 z2z | d3  g3  | e3 c3 | B2c d3-| d3 G3 | A3 a2 :|
|: z | f2e d3 | f2a f2e | d3 e3 | f2e d3 | F3 G3 | A3 a2 :|
% - - - - - - - - - - - - - - - - - - - - - - - - -
%%center Each Strain twice.
%%begintext align
The 1st Man foot it to 2d Wo. and turn Hands .|
1st Wo. do the same to 2d Man :|
1st Cu. cast off & set again, cast off behind the 3d Cu. & set; then the same to the Top .|
the 1st Cu go the whole figure with the 2d Cu. then down and up and cast off in the 3d Cu. Place.
%%endtext
